X:19
M:6/8
L:1/8
K:G
d | gfg efg | afa edB | gfg efg | afd def | 
gfe agf | gfe fdB | cBA BGE | AGG G2 :|| 

